static/images/wallet-icon.svg

<svg height="76" viewBox="0 0 97 76" width="97" xmlns="http://www.w3.org/2000/svg"><g fill="none" fill-rule="evenodd" transform="translate(1 1)"><g fill="#fff"><circle cx="76.231" cy="12.231" r="12.231"/><circle cx="76.231" cy="12.231" r="11.331" stroke="#686868" stroke-width="2"/><circle cx="76.231" cy="12.231" r="7.9767"/><circle cx="76.231" cy="12.231" r="7.5267" stroke="#686868" stroke-width="2"/></g><g fill="#f8f8fa"><circle cx="67.231" cy="14.231" r="12.231"/><circle cx="67.231" cy="14.231" r="11.331" stroke="#686868" stroke-width="2"/><circle cx="67.231" cy="14.231" r="7.9767"/><circle cx="67.231" cy="14.231" r="7.5267" stroke="#686868" stroke-width="2"/></g><g stroke="#686868" stroke-width="2" transform="translate(.2 5.309)"><path d="m.119 14.677v-8.233s0-6.443 6.444-6.443h48.8s6.921-.12 6.921 6.443v5.728" fill="#f8f8fa" stroke-linecap="square" stroke-linejoin="bevel"/><g stroke-linecap="round" stroke-linejoin="round"><g fill="#f8f8fa" transform="translate(0 12.29)"><path d="m91.522 18.972h-25.058c-1.3161557.0038444-2.3821556 1.0698443-2.386 2.386v13.126c.0038444 1.3161557 1.0698443 2.3821556 2.386 2.386h25.058c1.3161557-.0038444 2.3821556-1.0698443 2.386-2.386v-13.126c-.0038444-1.3161557-1.0698443-2.3821556-2.386-2.386z"/><path d="m64.077 34.485v-13.126c.0038416-1.3163192 1.0696825-2.3826069 2.386-2.387h20.047v-15.392c.0175428-.95474494-.3539986-1.87556025-1.0292192-2.55078082-.6752206-.67522058-1.5960359-1.04676202-2.5507808-1.02921918h-79.35c-.95474494-.01754284-1.87556025.3539986-2.55078082 1.02921918-.67522058.67522057-1.04676202 1.59603588-1.03036883 2.55078082v48.684c-.01611831.9545731.35554454 1.8751265 1.03073437 2.5501277.67518983.6750013 1.59584705 1.0464069 2.55041528 1.0288723h79.351c.9545682.0175346 1.8752255-.353871 2.5504153-1.0288723.6751898-.6750012 1.0468527-1.5955546 1.0306995-2.5501277v-15.393h-20.0481148c-1.3163192-.0038416-2.3826069-1.0696825-2.387-2.386z"/></g><path d="m81.38 39.973c.0004045 1.8344182-1.1043646 3.4884139-2.7990686 4.1906022-1.6947041.7021883-3.6455309.3142565-4.9426605-.9828731s-1.6850614-3.2479564-.9828731-4.9426605c.7021883-1.694704 2.356184-2.7994731 4.1906022-2.7990686 1.2087447-.0207885 2.3741032.4502209 3.2289412 1.3050588.8548379.854838 1.3258473 2.0201965 1.3050588 3.2289412z"/></g></g><path d="m24.2398374 48c.422561 0 .765439.3727141.7722543.8106531l.0001034.0132906v5.8732031c0 .0093545.0075833.0169377.0169377.0169377h1.1903794c.4310515 0 .7804878.3632169.7804878.8112676s-.3494363.8112676-.7804878.8112676h-1.1903794c-.0093544 0-.0169377.0075833-.0169377.0169377v5.8224989c0 .4392254-.298811.7749191-.7189392.781589l-.0127681.0001012h-.0813008c-.3401296 0-.5817841-.2047171-.8219-.4932402l-.0114333-.0138021-4.5946255-6.1073294c-.0031997-.0042533-.0082126-.0067551-.013535-.0067551h-4.1960401c-.0093544 0-.0169377.0075833-.0169377.0169377v5.8224989c0 .4392254-.3386524.8163317-.779299.8239437h-.0133839c-.422561 0-.765439-.3727141-.7722543-.8106531l-.0001034-.0132906v-5.8224989c0-.0093544-.0075833-.0169377-.0169377-.0169377h-1.1822493c-.4310515 0-.7804878-.3632169-.7804878-.8112676s.3494363-.8112676.7804878-.8112676h1.1822493c.0093544 0 .0169377-.0075832.0169377-.0169377v-5.8309496c0-.4392254.3585732-.8163317.7798966-.8238299l.0127863-.0001138h.2235773c.3545966 0 .5755376.1786199.792366.4589157l.0206421.0269998 4.6614542 6.1791783c.0032006.0042427.008207.0067372.0135216.0067372h3.9462979c.0093544 0 .0169377-.0075832.0169377-.0169377v-5.8732031c0-.4392254.3386524-.8163317.779299-.8239437zm-.8096206 8.3366197h-2.6967105c-.0093544 0-.0169377.0075833-.0169377.0169377 0 .003681.0011992.0072618.0034161.0102005l2.6967104 3.5747387c.0056336.0074678.0162544.0089547.0237222.0033212.0042427-.0032006.0067372-.0082071.0067372-.0135217v-3.5747387c0-.0093544-.0075833-.0169377-.0169377-.0169377zm-8.8855014-5.5605796v3.9211067c0 .0093545.0075833.0169377.0169377.0169377h2.9499048c.0093544 0 .0169376-.0075832.0169376-.0169377 0-.0036733-.0011942-.0072472-.0034026-.0101826l-2.9499047-3.9211067c-.0056237-.0074753-.0162425-.0089762-.0237177-.0033525-.0042532.0031998-.0067551.0082127-.0067551.0135351z" fill="#686868" fill-rule="nonzero"/></g></svg>

<?xml version="1.0" encoding="UTF-8"?>
<svg width="97px" height="76px" viewBox="0 0 97 76" version="1.1" xmlns="http://www.w3.org/2000/svg" xmlns:xlink="http://www.w3.org/1999/xlink">
    <!-- Generator: Sketch 63.1 (92452) - https://sketch.com -->
    <title>contribute-claim-bounty</title>
    <desc>Created with Sketch.</desc>
    <g id="Page-1" stroke="none" stroke-width="1" fill="none" fill-rule="evenodd">
        <g id="contribute-claim-bounty" transform="translate(1.000000, 1.000000)">
            <g id="Group_3099" transform="translate(64.000000, 0.000000)" fill="#FFFFFF">
                <g id="Ellipse_231">
                    <circle id="Oval" cx="12.231" cy="12.231" r="12.231"></circle>
                    <circle id="Oval" stroke="#686868" stroke-width="2" cx="12.231" cy="12.231" r="11.331"></circle>
                </g>
                <g id="Ellipse_232" transform="translate(4.254300, 4.254300)">
                    <circle id="Oval" cx="7.9767" cy="7.9767" r="7.9767"></circle>
                    <circle id="Oval" stroke="#686868" stroke-width="2" cx="7.9767" cy="7.9767" r="7.5267"></circle>
                </g>
            </g>
            <g id="Group_3099" transform="translate(55.000000, 2.000000)" fill="#F8F8FA">
                <g id="Ellipse_231">
                    <circle id="Oval" cx="12.231" cy="12.231" r="12.231"></circle>
                    <circle id="Oval" stroke="#686868" stroke-width="2" cx="12.231" cy="12.231" r="11.331"></circle>
                </g>
                <g id="Ellipse_232" transform="translate(4.254300, 4.254300)">
                    <circle id="Oval" cx="7.9767" cy="7.9767" r="7.9767"></circle>
                    <circle id="Oval" stroke="#686868" stroke-width="2" cx="7.9767" cy="7.9767" r="7.5267"></circle>
                </g>
            </g>
            <g id="Group_3093" transform="translate(0.200000, 5.309000)" stroke="#686868" stroke-width="2">
                <path d="M0.119,14.677 L0.119,6.444 C0.119,6.444 0.119,0.001 6.563,0.001 L55.363,0.001 C55.363,0.001 62.284,-0.119 62.284,6.444 L62.284,12.172" id="Path_1407" fill="#F8F8FA" stroke-linecap="square" stroke-linejoin="bevel"></path>
                <g id="Group_1154" stroke-linecap="round" stroke-linejoin="round" transform="translate(0.000000, 12.290000)" fill="#F8F8FA">
                    <path d="M91.522,18.972 L66.464,18.972 C65.1478443,18.9758444 64.0818444,20.0418443 64.078,21.358 L64.078,34.484 C64.0818444,35.8001557 65.1478443,36.8661556 66.464,36.87 L91.522,36.87 C92.8381557,36.8661556 93.9041556,35.8001557 93.908,34.484 L93.908,21.358 C93.9041556,20.0418443 92.8381557,18.9758444 91.522,18.972 Z" id="Path_1408"></path>
                    <path d="M64.077,34.485 L64.077,21.359 C64.0808416,20.0426808 65.1466825,18.9763931 66.463,18.972 L86.51,18.972 L86.51,3.58 C86.5275428,2.62525506 86.1560014,1.70443975 85.4807808,1.02921918 C84.8055602,0.353998601 83.8847449,-0.0175428366 82.93,0 L3.58,0 C2.62525506,-0.0175428366 1.70443975,0.353998601 1.02921918,1.02921918 C0.353998601,1.70443975 -0.0175428366,2.62525506 -0.00114965028,3.58 L-0.00114965028,52.264 C-0.0172679585,53.2185731 0.354394891,54.1391265 1.02958472,54.8141277 C1.70477455,55.489129 2.62543177,55.8605346 3.58,55.843 L82.931,55.843 C83.8855682,55.8605346 84.8062255,55.489129 85.4814153,54.8141277 C86.1566051,54.1391265 86.528268,53.2185731 86.5121148,52.264 L86.5121148,36.871 L66.464,36.871 C65.1476808,36.8671584 64.0813931,35.8013175 64.077,34.485 Z" id="Path_1409"></path>
                </g>
                <path d="M81.38,39.973 C81.3804045,41.8074182 80.2756354,43.4614139 78.5809314,44.1636022 C76.8862273,44.8657905 74.9354005,44.4778587 73.6382709,43.1807291 C72.3411413,41.8835995 71.9532095,39.9327727 72.6553978,38.2380686 C73.3575861,36.5433646 75.0115818,35.4385955 76.846,35.439 C78.0547447,35.4182115 79.2201032,35.8892209 80.0749412,36.7440588 C80.9297791,37.5988968 81.4007885,38.7642553 81.38,39.973 L81.38,39.973 Z" id="Path_1410" stroke-linecap="round" stroke-linejoin="round"></path>
            </g>
            <path d="M24.2398374,48 C24.6623984,48 25.0052764,48.3727141 25.0120917,48.8106531 L25.0121951,48.8239437 L25.0121951,54.6971468 C25.0121951,54.7065013 25.0197784,54.7140845 25.0291328,54.7140845 L26.2195122,54.7140845 L26.2195122,54.7140845 C26.6505637,54.7140845 27,55.0773014 27,55.5253521 C27,55.9734028 26.6505637,56.3366197 26.2195122,56.3366197 L25.0291328,56.3366197 C25.0197784,56.3366197 25.0121951,56.344203 25.0121951,56.3535574 L25.0121951,62.1760563 L25.0121951,62.1760563 C25.0121951,62.6152817 24.7133841,62.9509754 24.2932559,62.9576453 L24.2804878,62.9577465 L24.199187,62.9577465 C23.8590574,62.9577465 23.6174029,62.7530294 23.377287,62.4645063 L23.3658537,62.4507042 L18.7712282,56.3433748 C18.7680285,56.3391215 18.7630156,56.3366197 18.7576932,56.3366197 L14.5616531,56.3366197 C14.5522987,56.3366197 14.5447154,56.344203 14.5447154,56.3535574 L14.5447154,62.1760563 L14.5447154,62.1760563 C14.5447154,62.6152817 14.206063,62.992388 13.7654164,63 L13.7520325,63 C13.3294715,63 12.9865935,62.6272859 12.9797782,62.1893469 L12.9796748,62.1760563 L12.9796748,56.3535574 C12.9796748,56.344203 12.9720915,56.3366197 12.9627371,56.3366197 L11.7804878,56.3366197 L11.7804878,56.3366197 C11.3494363,56.3366197 11,55.9734028 11,55.5253521 C11,55.0773014 11.3494363,54.7140845 11.7804878,54.7140845 L12.9627371,54.7140845 C12.9720915,54.7140845 12.9796748,54.7065013 12.9796748,54.6971468 L12.9796748,48.8661972 L12.9796748,48.8661972 C12.9796748,48.4269718 13.338248,48.0498655 13.7595714,48.0423673 L13.7723577,48.0422535 L13.995935,48.0422535 C14.3505316,48.0422535 14.5714726,48.2208734 14.788301,48.5011692 L14.8089431,48.528169 L19.4703973,54.7073473 C19.4735979,54.71159 19.4786043,54.7140845 19.4839189,54.7140845 L23.4302168,54.7140845 C23.4395712,54.7140845 23.4471545,54.7065013 23.4471545,54.6971468 L23.4471545,48.8239437 L23.4471545,48.8239437 C23.4471545,48.3847183 23.7858069,48.007612 24.2264535,48 L24.2398374,48 Z M23.4302168,56.3366197 L20.7335063,56.3366197 C20.7241519,56.3366197 20.7165686,56.344203 20.7165686,56.3535574 C20.7165686,56.3572384 20.7177678,56.3608192 20.7199847,56.3637579 L23.4166951,59.9384966 C23.4223287,59.9459644 23.4329495,59.9474513 23.4404173,59.9418178 C23.44466,59.9386172 23.4471545,59.9336107 23.4471545,59.9282961 L23.4471545,56.3535574 C23.4471545,56.344203 23.4395712,56.3366197 23.4302168,56.3366197 Z M14.5447154,50.7760401 L14.5447154,54.6971468 C14.5447154,54.7065013 14.5522987,54.7140845 14.5616531,54.7140845 L17.5115579,54.7140845 C17.5209123,54.7140845 17.5284955,54.7065013 17.5284955,54.6971468 C17.5284955,54.6934735 17.5273013,54.6898996 17.5250929,54.6869642 L14.5751882,50.7658575 C14.5695645,50.7583822 14.5589457,50.7568813 14.5514705,50.762505 C14.5472173,50.7657048 14.5447154,50.7707177 14.5447154,50.7760401 Z" id="Shape" fill="#686868" fill-rule="nonzero"></path>
        </g>
    </g>
</svg>
